src/images_karasa_jaga_svg/cmd/lc_fontworkshapetype.fontwork-inflate.svg

<svg height="24" viewBox="0 0 24 24" width="24" xmlns="http://www.w3.org/2000/svg" xmlns:xlink="http://www.w3.org/1999/xlink"><linearGradient id="a" gradientUnits="userSpaceOnUse" x1="-.044922" x2="128.04492" y1="64" y2="64"><stop offset="0" stop-color="#7c9fcf"/><stop offset=".5" stop-color="#7c9ece"/><stop offset="1" stop-color="#7b9dcf"/></linearGradient><linearGradient id="b" gradientUnits="userSpaceOnUse" x1="58.181" x2="59.816792" y1="128" y2=".778573"><stop offset="0" stop-color="#fff"/><stop offset=".46428573" stop-color="#fff"/><stop offset=".78125" stop-color="#f1f1f1"/><stop offset=".90625" stop-color="#eaeaea"/><stop offset="1" stop-color="#dfdfdf"/></linearGradient><g transform="matrix(.171875 0 0 .171875 1 1)"><path d="m54.322266 12.771484a5.8735941 5.8735941 0 0 0 -2.757813.6875l-48.4941405 25.798828a5.8735941 5.8735941 0 0 0 -3.11523437 5.185547v39.113282a5.8735941 5.8735941 0 0 0 3.11523437 5.185547l48.4941405 25.798832a5.8735941 5.8735941 0 0 0 2.757813.6875h19.355468a5.8735941 5.8735941 0 0 0 2.757813-.6875l48.494143-25.798832a5.8735941 5.8735941 0 0 0 3.11523-5.185547v-39.113282a5.8735941 5.8735941 0 0 0 -3.11523-5.185547l-48.494143-25.798828a5.8735941 5.8735941 0 0 0 -2.757813-.6875z" fill="url(#a)"/><path d="m54.322801 18.643905-48.494965 25.800326v39.111559l48.494965 25.80031h19.354387l48.494982-25.80031v-39.111559l-48.494982-25.800326z" fill="url(#b)"/></g></svg>

<?xml version="1.0" encoding="UTF-8" standalone="no"?>
<!-- Created with Inkscape (http://www.inkscape.org/) -->

<svg
   xmlns:dc="http://purl.org/dc/elements/1.1/"
   xmlns:cc="http://creativecommons.org/ns#"
   xmlns:rdf="http://www.w3.org/1999/02/22-rdf-syntax-ns#"
   xmlns:svg="http://www.w3.org/2000/svg"
   xmlns="http://www.w3.org/2000/svg"
   xmlns:xlink="http://www.w3.org/1999/xlink"
   xmlns:sodipodi="http://sodipodi.sourceforge.net/DTD/sodipodi-0.dtd"
   xmlns:inkscape="http://www.inkscape.org/namespaces/inkscape"
   version="1.1"
   id="svg2"
   width="128"
   height="128"
   viewBox="0 0 128 128"
   sodipodi:docname="lc_fontworkshapetype.fontwork-inflate.svg"
   inkscape:export-filename="/home/rizmut/Dokumen/Rizmut/Github/libreoffice-style-karasa-jaga/build/images_karasa_jaga/cmd/lc_fontworkshapetype.fontwork-inflate.png"
   inkscape:export-xdpi="16.5"
   inkscape:export-ydpi="16.5"
   inkscape:version="0.92.3 (unknown)">
  <metadata
     id="metadata8">
    <rdf:RDF>
      <cc:Work
         rdf:about="">
        <dc:format>image/svg+xml</dc:format>
        <dc:type
           rdf:resource="http://purl.org/dc/dcmitype/StillImage" />
        <dc:title></dc:title>
      </cc:Work>
    </rdf:RDF>
  </metadata>
  <defs
     id="defs6">
    <linearGradient
       id="linearGradient7422">
      <stop
         style="stop-color:#7c9fcf;stop-opacity:1"
         offset="0"
         id="stop7424" />
      <stop
         id="stop5348"
         offset="0.5"
         style="stop-color:#7c9ece;stop-opacity:1" />
      <stop
         id="stop7426"
         offset="1"
         style="stop-color:#7b9dcf;stop-opacity:1" />
    </linearGradient>
    <linearGradient
       id="linearGradient3369">
      <stop
         id="stop3372"
         offset="0"
         style="stop-color:#ffffff;stop-opacity:1;" />
      <stop
         style="stop-color:#ffffff;stop-opacity:1;"
         offset="0.46428573"
         id="stop3374" />
      <stop
         style="stop-color:#f1f1f1;stop-opacity:1;"
         offset="0.78125"
         id="stop3376" />
      <stop
         id="stop3378"
         offset="0.90625"
         style="stop-color:#eaeaea;stop-opacity:1;" />
      <stop
         id="stop3384"
         offset="1"
         style="stop-color:#dfdfdf;stop-opacity:1;" />
    </linearGradient>
    <linearGradient
       inkscape:collect="always"
       xlink:href="#linearGradient7422"
       id="linearGradient1168"
       x1="-0.044921875"
       y1="64"
       x2="128.04492"
       y2="64"
       gradientUnits="userSpaceOnUse" />
    <linearGradient
       inkscape:collect="always"
       xlink:href="#linearGradient3369"
       id="linearGradient1176"
       x1="58.181"
       y1="128"
       x2="59.816792"
       y2="0.77857256"
       gradientUnits="userSpaceOnUse" />
  </defs>
  <sodipodi:namedview
     pagecolor="#ffffff"
     bordercolor="#666666"
     borderopacity="1"
     objecttolerance="10"
     gridtolerance="10"
     guidetolerance="10"
     inkscape:pageopacity="0"
     inkscape:pageshadow="2"
     inkscape:window-width="1366"
     inkscape:window-height="706"
     id="namedview4"
     showgrid="true"
     inkscape:snap-page="true"
     inkscape:snap-global="true"
     inkscape:zoom="1.7320077"
     inkscape:cx="42.545905"
     inkscape:cy="70.190477"
     inkscape:window-x="0"
     inkscape:window-y="0"
     inkscape:window-maximized="1"
     inkscape:current-layer="svg2">
    <inkscape:grid
       type="xygrid"
       id="grid812"
       spacingx="5.8181"
       spacingy="5.8181"
       empspacing="1" />
  </sodipodi:namedview>
  <path
     sodipodi:type="inkscape:offset"
     inkscape:radius="5.8730068"
     inkscape:original="M 54.322266 18.644531 L 5.828125 44.443359 L 5.828125 83.556641 L 54.322266 109.35547 L 73.677734 109.35547 L 122.17188 83.556641 L 122.17188 44.443359 L 73.677734 18.644531 L 54.322266 18.644531 z "
     style="opacity:1;fill:url(#linearGradient1168);fill-opacity:1.0;stroke:none;stroke-width:5.05653477;stroke-linecap:round;stroke-linejoin:bevel;stroke-miterlimit:4;stroke-dasharray:none;stroke-dashoffset:0;stroke-opacity:1"
     id="path1158"
     d="m 54.322266,12.771484 a 5.8735941,5.8735941 0 0 0 -2.757813,0.6875 L 3.0703125,39.257812 a 5.8735941,5.8735941 0 0 0 -3.11523437,5.185547 V 83.556641 A 5.8735941,5.8735941 0 0 0 3.0703125,88.742188 L 51.564453,114.54102 a 5.8735941,5.8735941 0 0 0 2.757813,0.6875 h 19.355468 a 5.8735941,5.8735941 0 0 0 2.757813,-0.6875 L 124.92969,88.742188 a 5.8735941,5.8735941 0 0 0 3.11523,-5.185547 V 44.443359 a 5.8735941,5.8735941 0 0 0 -3.11523,-5.185547 L 76.435547,13.458984 a 5.8735941,5.8735941 0 0 0 -2.757813,-0.6875 z" />
  <path
     sodipodi:nodetypes="ccccccccc"
     inkscape:connector-curvature="0"
     id="rect3937"
     d="M 54.322801,18.643905 5.827836,44.444231 V 83.55579 L 54.322801,109.3561 H 73.677188 L 122.17217,83.55579 V 44.444231 L 73.677188,18.643905 Z"
     style="opacity:1;fill:url(#linearGradient1176);fill-opacity:1;stroke:none;stroke-width:5.05653477;stroke-linecap:round;stroke-linejoin:bevel;stroke-miterlimit:4;stroke-dasharray:none;stroke-dashoffset:0;stroke-opacity:1" />
</svg>
